icons/midnadark/actions/24/cartesian-plot-two-axes-centered-origin.svg

<?xml version="1.0" encoding="UTF-8" standalone="no"?>
<!-- Created with Inkscape (http://www.inkscape.org/) -->

<svg
   xmlns:dc="http://purl.org/dc/elements/1.1/"
   xmlns:cc="http://creativecommons.org/ns#"
   xmlns:rdf="http://www.w3.org/1999/02/22-rdf-syntax-ns#"
   xmlns:svg="http://www.w3.org/2000/svg"
   xmlns="http://www.w3.org/2000/svg"
   xmlns:sodipodi="http://sodipodi.sourceforge.net/DTD/sodipodi-0.dtd"
   xmlns:inkscape="http://www.inkscape.org/namespaces/inkscape"
   width="22"
   height="22"
   id="svg3760"
   version="1.1"
   inkscape:version="0.91 r13725"
   sodipodi:docname="cartesian-plot-two-axes-centered-origin.svg">
  <defs
     id="defs3762" />
  <sodipodi:namedview
     id="base"
     pagecolor="#ffffff"
     bordercolor="#666666"
     borderopacity="1.0"
     inkscape:pageopacity="0.0"
     inkscape:pageshadow="2"
     inkscape:zoom="22.627417"
     inkscape:cx="0.93056109"
     inkscape:cy="11.471479"
     inkscape:document-units="px"
     inkscape:current-layer="layer1"
     showgrid="true"
     fit-margin-top="0"
     fit-margin-left="0"
     fit-margin-right="0"
     fit-margin-bottom="0"
     inkscape:window-width="1366"
     inkscape:window-height="633"
     inkscape:window-x="0"
     inkscape:window-y="33"
     inkscape:window-maximized="1"
     inkscape:showpageshadow="false"
     showguides="true"
     inkscape:snap-bbox="true">
    <inkscape:grid
       type="xygrid"
       id="grid4106"
       originx="-0.99998557px"
       originy="-1.0000252px" />
    <sodipodi:guide
       position="2.00001,19.99997"
       orientation="0,18"
       id="guide4229" />
    <sodipodi:guide
       position="20.00001,19.99997"
       orientation="18,0"
       id="guide4231" />
    <sodipodi:guide
       position="20.00001,1.99997"
       orientation="0,-18"
       id="guide4233" />
    <sodipodi:guide
       position="2.00001,1.99997"
       orientation="-18,0"
       id="guide4235" />
    <sodipodi:guide
       position="3.00001,18.99997"
       orientation="0,16"
       id="guide4237" />
    <sodipodi:guide
       position="19.00001,18.99997"
       orientation="16,0"
       id="guide4239" />
    <sodipodi:guide
       position="19.00001,2.99997"
       orientation="0,-16"
       id="guide4241" />
    <sodipodi:guide
       position="3.00001,2.99997"
       orientation="-16,0"
       id="guide4243" />
  </sodipodi:namedview>
  <metadata
     id="metadata3765">
    <rdf:RDF>
      <cc:Work
         rdf:about="">
        <dc:format>image/svg+xml</dc:format>
        <dc:type
           rdf:resource="http://purl.org/dc/dcmitype/StillImage" />
        <dc:title />
      </cc:Work>
    </rdf:RDF>
  </metadata>
  <g
     inkscape:label="Capa 1"
     inkscape:groupmode="layer"
     id="layer1"
     transform="translate(-551.28571,-607.64788)">
    <path
       style="fill:#ffffff;fill-opacity:1;stroke:none"
       d="M 16.726562 3 L 15 5.9902344 L 15 7.9902344 L 15 8 L 13.353516 8 L 13 8 L 12 8 L 11 9 L 11 4 L 10 4 L 10 9.9941406 L 9.9941406 10 L 10 10 L 8.9980469 11 L 3 11 L 3 12 L 7.9960938 12 L 7 12.998047 L 6 13.996094 L 6 14 L 6 14.789062 L 6 18 L 3 18 L 3 19 L 7 19 L 7 18 L 7 14.410156 L 7.4101562 14 L 7.4121094 14 L 9.4121094 12 L 10 12 L 10 19 L 11 19 L 11 12 L 18 12 L 18 11 L 11 11 L 11 10.412109 L 12.412109 9 L 16 9 L 16 8 L 16 6.2578125 L 17.302734 4 L 19 4 L 19 3 L 17.880859 3 L 16.726562 3 z "
       transform="translate(551.28571,607.64788)"
       id="rect3764" />
  </g>
</svg>

<svg xmlns="http://www.w3.org/2000/svg" viewBox="0 0 22 22"><path d="m16.727 3l-1.727 2.99v2 .001h-1.646-.354-1l-1 1v-5h-1v5.994l-.006.006h.006l-1 1h-5.998v1h4.996l-.996.998-1 .998v.004.789 3.211h-3v1h4v-1-3.59l.41-.41h.002l2-2h.588v7h1v-7h7v-1h-7v-.588l1.412-1.412h3.588v-1-1.742l1.303-2.258h1.697v-1h-1.119-1.154" fill="#fff"/></svg>
